X:196
T:Donald Quaich
R:Reel
B:The Athole Collection
M:C|
L:1/8
K:A Minor
c2eA B/B/B dG|c2eA aAeA|c2eA B>cdG|c>deA B^G A2:|
c3g B/B/B dG|c3g c/c/c ge|faeg dgBG|c>deA B^G A2|
c3g B/B/B dG|c3g c/c/c ge|faeg dgBG|c>deA B^G A2||

